Obsidian/apps/16s/preferences-desktop-online-accounts-symbolic.svg

<svg height="16" width="16" xmlns="http://www.w3.org/2000/svg"><path d="m8 1c-3.8659932 0-7 3.1340068-7 7 0 3.865993 3.1340068 7 7 7 3.865993 0 7-3.134007 7-7 0-3.8659932-3.134007-7-7-7zm.1289062 1c1.0135748 0 1.9336648.1911451 2.7617188.5742188.828054.378619 1.521564.927382 2.078125 1.6445312.339367.4365257.593679.9096255.765625 1.421875.176471.507795.265625 1.0422683.265625 1.6035156 0 1.2071268-.367912 2.1463016-1.105469 2.8144534-.737556.668151-1.779155 1.001953-3.1230466 1.001953h-.265625v-1.029297c-.1357465.316258-.3550357.564014-.6582032.742188-.2986424.173719-.6480662.259765-1.0507812.259765-.7782805 0-1.4117028-.275786-1.9003906-.828125-.4841629-.5567927-.7265625-1.2810062-.7265625-2.1718749 0-.8908686.2437341-1.6150822.7324219-2.171875.4886877-.5567928 1.1207755-.8339843 1.8945312-.8339843.402715 0 .7521388.0894044 1.0507812.2675781.3031675.1781737.5224567.4239762.6582032.7402343v-.875h1.4199216v4.6308594c.561086-.0846325 1.000999-.3494875 1.322266-.7949218.321267-.4498886.482422-1.0252776.482422-1.7246094 0-.4454343-.066044-.8624721-.197266-1.25-.131222-.3919822-.328735-.7490518-.595703-1.0742188-.429864-.5434299-.970129-.963826-1.617188-1.2578125-.6425333-.2939867-1.338712-.4394531-2.0898432-.4394531-.5248869 0-1.0262214.0689466-1.5058594.2070312-.479638.1336302-.9228383.3309438-1.3300782.59375-.6696832.4365258-1.1927937 1.0023882-1.5683593 1.6972657-.3710407.690423-.5566406 1.4398575-.5566407 2.2460937 0 .6636971.119556 1.2856217.359375 1.8691406.2443439.5790648.5957209 1.0916748 1.0527344 1.5371098.4524887.436525.969024.768922 1.5527344.996093.5882353.231626 1.215701.347657 1.8808594.347657.5701358 0 1.1408018-.105099 1.7109375-.314453.5701361-.209355 1.0562691-.491309 1.4589841-.847657l.726563 1.082031c-.565611.432072-1.183833.76111-1.853516.988282-.6651581.231626-1.3415139.347656-2.0292968.347656-.837104 0-1.6270591-.14742-2.3691406-.441406-.7420814-.289533-1.4032363-.712739-1.9824218-1.269532-.5791856-.556792-1.0190982-1.199175-1.3222657-1.929687-.3031674-.7349666-.4550781-1.5233636-.4550781-2.3652344 0-.8106905.1532452-1.5833928.4609375-2.3183594.3076923-.7349665.7462705-1.38266 1.3164063-1.9394531.5701357-.5523385 1.2345782-.9783547 1.9902343-1.28125.760181-.3028953 1.5468485-.4550781 2.3613281-.4550781zm-.0957031 4.2695312c-.39819 0-.7172122.158351-.9570312.4746094-.2352941.3118039-.3515625.736415-.3515625 1.2753906 0 .5478841.1162684.9806166.3515625 1.296875.239819.3162584.5634633.4746094.9707031.4746094.4027149 0 .7250248-.158351.9648438-.4746094.2398189-.3207126.359375-.7534452.359375-1.296875 0-.5389756-.1228438-.9635867-.3671876-1.2753906-.2398189-.3162584-.5634632-.4746094-.9707031-.4746094z" fill="#bebebe"/></svg>

<?xml version="1.0" encoding="UTF-8" standalone="no"?>
<svg
   xmlns:dc="http://purl.org/dc/elements/1.1/"
   xmlns:cc="http://creativecommons.org/ns#"
   xmlns:rdf="http://www.w3.org/1999/02/22-rdf-syntax-ns#"
   xmlns:svg="http://www.w3.org/2000/svg"
   xmlns="http://www.w3.org/2000/svg"
   xmlns:sodipodi="http://sodipodi.sourceforge.net/DTD/sodipodi-0.dtd"
   xmlns:inkscape="http://www.inkscape.org/namespaces/inkscape"
   width="16"
   height="16"
   version="1.1"
   id="svg4"
   sodipodi:docname="preferences-desktop-online-accounts-symbolic.svg"
   inkscape:version="0.92.2 2405546, 2018-03-11">
  <metadata
     id="metadata10">
    <rdf:RDF>
      <cc:Work
         rdf:about="">
        <dc:format>image/svg+xml</dc:format>
        <dc:type
           rdf:resource="http://purl.org/dc/dcmitype/StillImage" />
      </cc:Work>
    </rdf:RDF>
  </metadata>
  <defs
     id="defs8" />
  <sodipodi:namedview
     pagecolor="#ffffff"
     bordercolor="#666666"
     borderopacity="1"
     objecttolerance="10"
     gridtolerance="10"
     guidetolerance="10"
     inkscape:pageopacity="0"
     inkscape:pageshadow="2"
     inkscape:window-width="1920"
     inkscape:window-height="1011"
     id="namedview6"
     showgrid="false"
     inkscape:zoom="20.85965"
     inkscape:cx="9.8838556"
     inkscape:cy="16.286564"
     inkscape:window-x="0"
     inkscape:window-y="32"
     inkscape:window-maximized="1"
     inkscape:current-layer="svg4" />
  <path
     style="fill:#bebebe;fill-opacity:1"
     d="M 8 1 C 4.1340068 1 1 4.1340068 1 8 C 1 11.865993 4.1340068 15 8 15 C 11.865993 15 15 11.865993 15 8 C 15 4.1340068 11.865993 1 8 1 z M 8.1289062 2 C 9.142481 2 10.062571 2.1911451 10.890625 2.5742188 C 11.718679 2.9528378 12.412189 3.5016008 12.96875 4.21875 C 13.308117 4.6552757 13.562429 5.1283755 13.734375 5.640625 C 13.910846 6.14842 14 6.6828933 14 7.2441406 C 14 8.4512674 13.632088 9.3904422 12.894531 10.058594 C 12.156975 10.726745 11.115376 11.060547 9.7714844 11.060547 L 9.5058594 11.060547 L 9.5058594 10.03125 C 9.3701129 10.347508 9.1508237 10.595264 8.8476562 10.773438 C 8.5490138 10.947157 8.19959 11.033203 7.796875 11.033203 C 7.0185945 11.033203 6.3851722 10.757417 5.8964844 10.205078 C 5.4123215 9.6482853 5.1699219 8.9240718 5.1699219 8.0332031 C 5.1699219 7.1423345 5.413656 6.4181209 5.9023438 5.8613281 C 6.3910315 5.3045353 7.0231193 5.0273438 7.796875 5.0273438 C 8.19959 5.0273438 8.5490138 5.1167482 8.8476562 5.2949219 C 9.1508237 5.4730956 9.3701129 5.7188981 9.5058594 6.0351562 L 9.5058594 5.1601562 L 10.925781 5.1601562 L 10.925781 9.7910156 C 11.486867 9.7063831 11.92678 9.4415281 12.248047 8.9960938 C 12.569314 8.5462052 12.730469 7.9708162 12.730469 7.2714844 C 12.730469 6.8260501 12.664425 6.4090123 12.533203 6.0214844 C 12.401981 5.6295022 12.204468 5.2724326 11.9375 4.9472656 C 11.507636 4.4038357 10.967371 3.9834396 10.320312 3.6894531 C 9.6777787 3.3954664 8.9816 3.25 8.2304688 3.25 C 7.7055819 3.25 7.2042474 3.3189466 6.7246094 3.4570312 C 6.2449714 3.5906614 5.8017711 3.787975 5.3945312 4.0507812 C 4.724848 4.487307 4.2017375 5.0531694 3.8261719 5.7480469 C 3.4551312 6.4384699 3.2695313 7.1879044 3.2695312 7.9941406 C 3.2695312 8.6578377 3.3890872 9.2797623 3.6289062 9.8632812 C 3.8732501 10.442346 4.2246271 10.954956 4.6816406 11.400391 C 5.1341293 11.836916 5.6506646 12.169313 6.234375 12.396484 C 6.8226103 12.62811 7.450076 12.744141 8.1152344 12.744141 C 8.6853702 12.744141 9.2560362 12.639042 9.8261719 12.429688 C 10.396308 12.220333 10.882441 11.938379 11.285156 11.582031 L 12.011719 12.664062 C 11.446108 13.096134 10.827886 13.425172 10.158203 13.652344 C 9.4930449 13.88397 8.8166891 14 8.1289062 14 C 7.2918022 14 6.5018471 13.85258 5.7597656 13.558594 C 5.0176842 13.269061 4.3565293 12.845855 3.7773438 12.289062 C 3.1981582 11.73227 2.7582456 11.089887 2.4550781 10.359375 C 2.1519107 9.6244084 2 8.8360114 2 7.9941406 C 2 7.1834501 2.1532452 6.4107478 2.4609375 5.6757812 C 2.7686298 4.9408147 3.207208 4.2931212 3.7773438 3.7363281 C 4.3474795 3.1839896 5.011922 2.7579734 5.7675781 2.4550781 C 6.5277591 2.1521828 7.3144266 2 8.1289062 2 z M 8.0332031 6.2695312 C 7.6350131 6.2695312 7.3159909 6.4278822 7.0761719 6.7441406 C 6.8408778 7.0559445 6.7246094 7.4805556 6.7246094 8.0195312 C 6.7246094 8.5674153 6.8408778 9.0001478 7.0761719 9.3164062 C 7.3159909 9.6326646 7.6396352 9.7910156 8.046875 9.7910156 C 8.4495899 9.7910156 8.7718998 9.6326646 9.0117188 9.3164062 C 9.2515377 8.9956936 9.3710938 8.562961 9.3710938 8.0195312 C 9.3710938 7.4805556 9.24825 7.0559445 9.0039062 6.7441406 C 8.7640873 6.4278822 8.440443 6.2695312 8.0332031 6.2695312 z "
     id="path2" />
  <g
     aria-label="@"
     style="font-style:normal;font-weight:normal;font-size:40px;line-height:1.25;font-family:sans-serif;letter-spacing:0px;word-spacing:0px;fill:#000000;fill-opacity:1;stroke:none"
     id="text4526"
     transform="matrix(0.34751131,0,0,0.34209354,4.7826443,12.78102)" />
</svg>
